svg/ispconfig.svg

<svg xmlns="http://www.w3.org/2000/svg" width="512pt" height="512pt" viewBox="0 0 512 512"><path fill="#cc141b" d="M18.42 79.38c9.15-7.3 20.78-11.88 32.59-11.39 137.66.02 275.33.02 412.99 0 10.79.28 21.19 4.74 29.57 11.41 10.51 8.23 17.09 20.99 18.43 34.21v209.63c-1.14 12.64-6.97 24.85-16.47 33.32-9.09 8.29-21.28 13.02-33.58 13.15-13.98.11-27.96.01-41.94.04-.02-16.66-.02-33.33 0-50 13.43-.11 26.88.2 40.31-.15-.18-67.28-.01-134.56-.08-201.84-136.75-.02-273.49-.01-410.23 0-.01 67.33-.02 134.66 0 201.99 98.01-.01 196.01 0 294.01 0 19.71.01 38.66 12.73 46.04 31.02 5.17 11.39 3.75 24.13 3.94 36.26.17 8.1-.16 16.41-3.15 24.04-6.57 18.62-25.1 32.33-44.86 32.93H175.03c-7.09-.09-14.33.55-21.24-1.47-16.57-4.19-30.5-17.32-35.5-33.69-3.11-9.14-2.17-18.88-2.27-28.35 17.08.02 34.15-.02 51.23.02.01 4.32 0 8.65 0 12.97 58.66.03 117.33.02 175.99.01.01-8.08.01-16.15 0-24.23-92.08-.01-184.16 0-276.24-.01-8.82-.22-17.73.67-26.45-1-14.56-3.1-27.8-12.59-34.82-25.8-3.16-5.9-5-12.43-5.73-19.06V113.66c1.29-13.26 7.91-26.02 18.42-34.28Z"/><path fill="#8d9499" d="M115.76 257.01c17.33-.02 34.66-.02 51.99.01 0 17.24.02 34.48 0 51.72-17.32.03-34.63 0-51.95.02-.12-17.25-.03-34.5-.04-51.75Z"/></svg>

<?xml version="1.0" encoding="UTF-8" ?>
<!DOCTYPE svg PUBLIC "-//W3C//DTD SVG 1.1//EN" "http://www.w3.org/Graphics/SVG/1.1/DTD/svg11.dtd">
<svg width="512pt" height="512pt" viewBox="0 0 512 512" version="1.1" xmlns="http://www.w3.org/2000/svg">
<g id="#ffffffff">
</g>
<g id="#cc141bff">
<path fill="#cc141b" opacity="1.00" d=" M 18.42 79.38 C 27.57 72.08 39.20 67.50 51.01 67.99 C 188.67 68.01 326.34 68.01 464.00 67.99 C 474.79 68.27 485.19 72.73 493.57 79.40 C 504.08 87.63 510.66 100.39 512.00 113.61 L 512.00 323.24 C 510.86 335.88 505.03 348.09 495.53 356.56 C 486.44 364.85 474.25 369.58 461.95 369.71 C 447.97 369.82 433.99 369.72 420.01 369.75 C 419.99 353.09 419.99 336.42 420.01 319.75 C 433.44 319.64 446.89 319.95 460.32 319.60 C 460.14 252.32 460.31 185.04 460.24 117.76 C 323.49 117.74 186.75 117.75 50.01 117.76 C 50.00 185.09 49.99 252.42 50.01 319.75 C 148.02 319.74 246.02 319.75 344.02 319.75 C 363.73 319.76 382.68 332.48 390.06 350.77 C 395.23 362.16 393.81 374.90 394.00 387.03 C 394.17 395.13 393.84 403.44 390.85 411.07 C 384.28 429.69 365.75 443.40 345.99 444.00 C 289.00 444.00 232.02 444.00 175.03 444.00 C 167.94 443.91 160.70 444.55 153.79 442.53 C 137.22 438.34 123.29 425.21 118.29 408.84 C 115.18 399.70 116.12 389.96 116.02 380.49 C 133.10 380.51 150.17 380.47 167.25 380.51 C 167.26 384.83 167.25 389.16 167.25 393.48 C 225.91 393.51 284.58 393.50 343.24 393.49 C 343.25 385.41 343.25 377.34 343.24 369.26 C 251.16 369.25 159.08 369.26 67.00 369.25 C 58.18 369.03 49.27 369.92 40.55 368.25 C 25.99 365.15 12.75 355.66 5.73 342.45 C 2.57 336.55 0.73 330.02 0.00 323.39 L 0.00 113.66 C 1.29 100.40 7.91 87.64 18.42 79.38 Z" />
</g>
<g id="#8d9499ff">
<path fill="#8d9499" opacity="1.00" d=" M 115.76 257.01 C 133.09 256.99 150.42 256.99 167.75 257.02 C 167.75 274.26 167.77 291.50 167.75 308.74 C 150.43 308.77 133.12 308.74 115.80 308.76 C 115.68 291.51 115.77 274.26 115.76 257.01 Z" />
</g>
</svg>
